icons/badge/info/triangle.svg

<svg width="32" height="32" viewBox="0 0 32 32" fill="none" xmlns="http://www.w3.org/2000/svg">
<path fill-rule="evenodd" clip-rule="evenodd" d="M12.9878 3.75579C13.2548 3.28843 13.7518 3 14.2901 3H17.7098C18.2481 3 18.7451 3.28843 19.0122 3.75579L30.7149 24.2356C30.9968 24.7289 30.9758 25.3391 30.6606 25.8118L28.9804 28.3321C28.7023 28.7493 28.2339 29 27.7324 29H4.26756C3.76603 29 3.29768 28.7493 3.01948 28.3321L1.33933 25.8118C1.02417 25.3391 1.00315 24.7289 1.28504 24.2356L12.9878 3.75579ZM14.5803 5L3.17484 24.9595L4.53515 27H27.4648L28.8251 24.9595L17.4196 5H14.5803ZM19 24H13V22H15V18H14V16H17V17V18V22H19V24ZM17.5 11H14.5V14H17.5V11Z" fill="black"/>
</svg>

<svg viewBox="0 0 32 32" xmlns="http://www.w3.org/2000/svg"><path fill-rule="evenodd" d="M12.988 3.756A1.5 1.5 0 0114.29 3h3.42a1.5 1.5 0 011.302.756l11.703 20.48a1.5 1.5 0 01-.054 1.576l-1.68 2.52a1.5 1.5 0 01-1.249.668H4.268a1.5 1.5 0 01-1.249-.668l-1.68-2.52a1.5 1.5 0 01-.054-1.576l11.703-20.48zM14.58 5L3.175 24.96 4.535 27h22.93l1.36-2.04L17.42 5h-2.84zM19 24h-6v-2h2v-4h-1v-2h3v6h2v2zm-1.5-13h-3v3h3v-3z"/></svg>
